public/avatar/item2/56.svg

<svg xmlns:xlink="http://www.w3.org/1999/xlink" height="99.2" width="82.2" xmlns="http://www.w3.org/2000/svg"><use height="18.9" transform="translate(13.05 66)" width="33.9" xlink:href="#a"/><defs><g id="a" fill-rule="evenodd"><path d="M14.3 20.95q-1.7 2.55-4.95 4.65-4.7 3.05-10.2 3.05-5.55 0-10-3.05-3.05-2.1-4.55-4.6l.45-1.5 3.55 3.95Q-6.7 27.4-.9 27.4q5.85 0 11.05-4.05 2.6-2.05 4-4.1.5 1.25.15 1.7" fill="#533a2d" transform="translate(17.95 -19.25)"/><path d="M6.95 26.35v-.45q4-1.95 6.9-5.3-2.6 3.65-6.9 5.75M-9.1 25.6v.4q-2.95-1.7-5-4.45 2.1 2.4 5 4.05" fill="#b69a65" transform="translate(17.95 -19.25)"/><path d="M6.95 25.9v.45q-4 1.9-7.8 1.9-4.3 0-8.25-2.25v-.4q3.85 2.2 8.2 2.2 4.05 0 7.85-1.9" fill="#d9c288" transform="translate(17.95 -19.25)"/><path d="m-15.8 24.1 3.65 3.45-2.35 1.05q-2.2 1.4-1.75 2.95-2.55-2.25-1.3-5.05l1.75-2.4" fill="#626265" transform="translate(17.95 -19.25)"/><path d="M-15 25.65v.15q-1.2 1.5-2.1 3.6l-.3-1.2.05-.55q.25-1.3 1.55-2.75l.8.75" fill="#fff" transform="translate(17.95 -19.25)"/><path d="M-15 25.8v-.15l1.8 1.65q-2.75 1.2-3.45 2.85l-.45-.75q.9-2.1 2.1-3.6" fill="#ded9d9" transform="translate(17.95 -19.25)"/><path d="m-11.35 26.65-.8 1-3.8-3.5 1-.9q2.75.95 3.6 3.4" fill="#533a2d" transform="translate(17.95 -19.25)"/><path d="m-15.1 24.15.2-.2q1.9.8 2.9 2.6l-.2.25-2.9-2.65" fill="#b69a65" transform="translate(17.95 -19.25)"/><path d="m-10.5 28.35 4.75 2.3-2 1.85q-1.8 2.1-.85 3.45-3.3-1.45-2.9-4.65l1-2.95" fill="#626265" transform="translate(17.95 -19.25)"/><path d="m-10.25 29.15 1.45.65q-1 2.35-1.3 4.3l-.7-1.1-.15-1.3q.05-1.25.7-2.55" fill="#fff" transform="translate(17.95 -19.25)"/><path d="m-8.8 29.8 1.95.95q-2.45 2.2-2.6 3.95l-.65-.6q.3-1.95 1.3-4.3" fill="#ded9d9" transform="translate(17.95 -19.25)"/><path d="m-10.75 28.3.65-1.05 2.65.55q1.45.7 2.3 1.85l-.55 1.1-5.05-2.45" fill="#533a2d" transform="translate(17.95 -19.25)"/><path d="m-9.9 28.05.15-.2q.95 0 2.05.5 1.15.6 1.85 1.4l-.15.2-3.9-1.9" fill="#b69a65" transform="translate(17.95 -19.25)"/><path d="m13.9 24.7 1.7 2.45q1.2 2.85-1.45 5.05.8-2.45-4-4.15l3.75-3.35" fill="#626265" transform="translate(17.95 -19.25)"/><path d="M12.8 28.8q-.4-.95-.4-1.95l1.5-1.3q1.2 1.35 1.45 2.8l.05.55q-.05.95-.85 1.95-.35-1.05-1.75-2.05" fill="#ded9d9" transform="translate(17.95 -19.25)"/><path d="m12.8 28.8-1.55-.95 1.15-1q0 1 .4 1.95" fill="#fff" transform="translate(17.95 -19.25)"/><path d="m13.15 23.85.95.9-3.9 3.4-.8-1.05.8-1.3q1.15-1.4 2.95-1.95" fill="#533a2d" transform="translate(17.95 -19.25)"/><path d="M10.1 27.05q.75-1.65 2.95-2.5l.15.2-2.95 2.55-.15-.25" fill="#b69a65" transform="translate(17.95 -19.25)"/><path d="M8.35 28.55 9.4 31.5q.35 3.2-2.95 4.65Q8 33.9 3.6 30.85l4.75-2.3" fill="#626265" transform="translate(17.95 -19.25)"/><path d="m7.5 34.75-.25-.35-.7-1.45q-.45-1.35.1-2.9l1.45-.75.75 2.55-.15 1.35-1.2 1.55" fill="#ded9d9" transform="translate(17.95 -19.25)"/><path d="M6.65 30.05q-.55 1.55-.1 2.9l-1.85-2 1.95-.9" fill="#fff" transform="translate(17.95 -19.25)"/><path d="m8.65 28.5-5 2.45-.55-1.1L5.4 28q1.45-.65 2.6-.55l.65 1.05" fill="#533a2d" transform="translate(17.95 -19.25)"/><path d="M5.6 28.55 7.7 28l.15.25-3.95 1.9-.1-.2q.8-.95 1.8-1.4" fill="#b69a65" transform="translate(17.95 -19.25)"/><path d="m-3.9 31.25 5.6.15-3.1 6.75-2.5-6.9" fill="#626265" transform="translate(17.95 -19.25)"/><path d="m-1.35 31.9.35 3.95-.35.75-1.7-4.75 1.7.05" fill="#fff" transform="translate(17.95 -19.25)"/><path d="m-1 35.85-.35-3.95L.8 32-1 35.85" fill="#ded9d9" transform="translate(17.95 -19.25)"/><path d="M1.8 29.9v1.5l-5.95-.15.1-1.55 3.05-.5q1.5 0 2.8.7" fill="#533a2d" transform="translate(17.95 -19.25)"/><path d="M1.2 30.3v.5l-4.7-.15v-.5l2.5-.4q1.35.05 2.2.55" fill="#b69a65" transform="translate(17.95 -19.25)"/></g></defs></svg>

<?xml version="1.0" encoding="UTF-8" standalone="no"?>
<svg xmlns:xlink="http://www.w3.org/1999/xlink" height="99.2px" width="82.2px" xmlns="http://www.w3.org/2000/svg">
  <g transform="matrix(1.0, 0.0, 0.0, 1.0, 31.0, 46.75)">
    <use height="18.9" transform="matrix(1.0, 0.0, 0.0, 1.0, -17.95, 19.25)" width="33.9" xlink:href="#shape0"/>
  </g>
  <defs>
    <g id="shape0" transform="matrix(1.0, 0.0, 0.0, 1.0, 17.95, -19.25)">
      <path d="M14.3 20.95 Q12.6 23.5 9.35 25.6 4.65 28.65 -0.85 28.65 -6.4 28.65 -10.85 25.6 -13.9 23.5 -15.4 21.0 L-14.95 19.5 -11.4 23.45 Q-6.7 27.4 -0.9 27.4 4.95 27.4 10.15 23.35 12.75 21.3 14.15 19.25 14.65 20.5 14.3 20.95" fill="#533a2d" fill-rule="evenodd" stroke="none"/>
      <path d="M6.95 26.35 L6.95 25.9 Q10.95 23.95 13.85 20.6 11.25 24.25 6.95 26.35" fill="#b69a65" fill-rule="evenodd" stroke="none"/>
      <path d="M-9.1 25.6 L-9.1 26.0 Q-12.05 24.3 -14.1 21.55 -12.0 23.95 -9.1 25.6" fill="#b69a65" fill-rule="evenodd" stroke="none"/>
      <path d="M6.95 25.9 L6.95 26.35 Q2.95 28.25 -0.85 28.25 -5.15 28.25 -9.1 26.0 L-9.1 25.6 Q-5.25 27.8 -0.9 27.8 3.15 27.8 6.95 25.9" fill="#d9c288" fill-rule="evenodd" stroke="none"/>
      <path d="M-15.8 24.1 L-12.15 27.55 -14.5 28.6 Q-16.7 30.0 -16.25 31.55 -18.8 29.3 -17.55 26.5 L-15.8 24.1" fill="#626265" fill-rule="evenodd" stroke="none"/>
      <path d="M-15.0 25.65 L-15.0 25.8 Q-16.2 27.3 -17.1 29.4 L-17.4 28.2 -17.35 27.65 Q-17.1 26.35 -15.8 24.9 L-15.0 25.65" fill="#ffffff" fill-rule="evenodd" stroke="none"/>
      <path d="M-15.0 25.8 L-15.0 25.65 -13.2 27.3 Q-15.95 28.5 -16.65 30.15 L-17.1 29.4 Q-16.2 27.3 -15.0 25.8" fill="#ded9d9" fill-rule="evenodd" stroke="none"/>
      <path d="M-11.35 26.65 L-12.15 27.65 -15.95 24.15 -14.95 23.25 Q-12.2 24.2 -11.35 26.65" fill="#533a2d" fill-rule="evenodd" stroke="none"/>
      <path d="M-15.1 24.15 L-14.9 23.95 Q-13.0 24.75 -12.0 26.55 L-12.2 26.8 -15.1 24.15" fill="#b69a65" fill-rule="evenodd" stroke="none"/>
      <path d="M-10.5 28.35 L-5.75 30.65 -7.75 32.5 Q-9.55 34.6 -8.6 35.95 -11.9 34.5 -11.5 31.3 L-10.5 28.35" fill="#626265" fill-rule="evenodd" stroke="none"/>
      <path d="M-10.25 29.15 L-8.8 29.8 Q-9.8 32.15 -10.1 34.1 L-10.8 33.0 -10.95 31.7 Q-10.9 30.45 -10.25 29.15" fill="#ffffff" fill-rule="evenodd" stroke="none"/>
      <path d="M-8.8 29.8 L-6.85 30.75 Q-9.3 32.95 -9.45 34.7 L-10.1 34.1 Q-9.8 32.15 -8.8 29.8" fill="#ded9d9" fill-rule="evenodd" stroke="none"/>
      <path d="M-10.75 28.3 L-10.1 27.25 -7.45 27.8 Q-6.0 28.5 -5.15 29.65 L-5.7 30.75 -10.75 28.3" fill="#533a2d" fill-rule="evenodd" stroke="none"/>
      <path d="M-9.9 28.05 L-9.75 27.85 Q-8.8 27.85 -7.7 28.35 -6.55 28.95 -5.85 29.75 L-6.0 29.95 -9.9 28.05" fill="#b69a65" fill-rule="evenodd" stroke="none"/>
      <path d="M13.9 24.7 L15.6 27.15 Q16.8 30.0 14.15 32.2 14.95 29.75 10.15 28.05 L13.9 24.7" fill="#626265" fill-rule="evenodd" stroke="none"/>
      <path d="M12.8 28.8 Q12.4 27.85 12.4 26.85 L13.9 25.55 Q15.1 26.9 15.35 28.35 L15.4 28.9 Q15.35 29.85 14.55 30.85 14.2 29.8 12.8 28.8" fill="#ded9d9" fill-rule="evenodd" stroke="none"/>
      <path d="M12.8 28.8 L11.25 27.85 12.4 26.85 Q12.4 27.85 12.8 28.8" fill="#ffffff" fill-rule="evenodd" stroke="none"/>
      <path d="M13.15 23.85 L14.1 24.75 10.2 28.15 9.4 27.1 10.2 25.8 Q11.35 24.4 13.15 23.85" fill="#533a2d" fill-rule="evenodd" stroke="none"/>
      <path d="M10.1 27.05 Q10.85 25.4 13.05 24.55 L13.2 24.75 10.25 27.3 10.1 27.05" fill="#b69a65" fill-rule="evenodd" stroke="none"/>
      <path d="M8.35 28.55 L9.4 31.5 Q9.75 34.7 6.45 36.15 8.0 33.9 3.6 30.85 L8.35 28.55" fill="#626265" fill-rule="evenodd" stroke="none"/>
      <path d="M7.5 34.75 L7.25 34.4 6.55 32.95 Q6.1 31.6 6.65 30.05 L8.1 29.3 8.85 31.85 8.7 33.2 7.5 34.75" fill="#ded9d9" fill-rule="evenodd" stroke="none"/>
      <path d="M6.65 30.05 Q6.1 31.6 6.55 32.95 L4.7 30.95 6.65 30.05" fill="#ffffff" fill-rule="evenodd" stroke="none"/>
      <path d="M8.65 28.5 L3.65 30.95 3.1 29.85 5.4 28.0 Q6.85 27.35 8.0 27.45 L8.65 28.5" fill="#533a2d" fill-rule="evenodd" stroke="none"/>
      <path d="M5.6 28.55 L7.7 28.0 7.85 28.25 3.9 30.15 3.8 29.95 Q4.6 29.0 5.6 28.55" fill="#b69a65" fill-rule="evenodd" stroke="none"/>
      <path d="M-3.9 31.25 L1.7 31.4 -1.4 38.15 -3.9 31.25" fill="#626265" fill-rule="evenodd" stroke="none"/>
      <path d="M-1.35 31.9 L-1.0 35.85 -1.35 36.6 -3.05 31.85 -1.35 31.9" fill="#ffffff" fill-rule="evenodd" stroke="none"/>
      <path d="M-1.0 35.85 L-1.35 31.9 0.8 32.0 -1.0 35.85" fill="#ded9d9" fill-rule="evenodd" stroke="none"/>
      <path d="M1.8 29.9 L1.8 31.4 -4.15 31.25 -4.05 29.7 -1.0 29.2 Q0.5 29.2 1.8 29.9" fill="#533a2d" fill-rule="evenodd" stroke="none"/>
      <path d="M1.2 30.3 L1.2 30.8 -3.5 30.65 -3.5 30.15 -1.0 29.75 Q0.35 29.8 1.2 30.3" fill="#b69a65" fill-rule="evenodd" stroke="none"/>
    </g>
  </defs>
</svg>
